X:1
T:John Ryan's Polka
L:1/8
R:Polka
M:2/4
K:D
dd B/c/d/c/ | BF BF | dd B/c/d/c/ | BA FD |
dd B/c/d/c/ | BF Bd/e/ | fd ec | d2 d2 :|
|: fd de/f/ | gf ed | fd Bd | fg a2 |
fd de/f/ | gf ed | fd ec | d2 d2 :| 

